X:1
T:Title
%%score { ( 1 3 ) | ( 2 4 ) }
L:1/8
Q:1/4=100
M:6/8
K:F
V:1 treble nm="Grand Piano"
V:3 treble 
V:2 bass 
V:4 bass 
V:1
 [A,CA]2 [A,CF] [B,G]2 [B,F] | [A,A]3[K:bass] A3 | [=B,G]2 [F,B,D][K:treble] [G,_B,E]2 [B,G] | %3
w: W.~H.~G.~Bradner * * *|||
 [A,C]6 | [CG]2 [CE] [A,CF]2 D | G3 G3 | F2 G A2 [F=B] | [CEc]6 | [Dd]2 [^FA] [GB]2 [DG] | .G3 B3 | %10
w: |||||||
 [Ec]2 [EG] [FA]2 [F=B] | [Cc]2- [C-Gc-] [C-Fc-]2 [CEc] | f2 c [Fd]2 [Fc] |[M:4/4] [Ff]2 B2 A2 G2 | %14
w: ||||
[M:6/8] [Fc]3 [B,E]3 | [A,F]6 | [Ec]2 [Fc] [Gc]2 [Ec] | [Ac]3 c2- [Gc] | [^Fd]2 [Gd] [Ad]2 [Ad] | %19
w: |||||
 d3 e3 | f2 [Ac] [Ad]2 [Ac] |[M:4/4] f2 B2 c2 d2 |[M:6/8] [Fc]3 E3 | F6 |] %24
w: |||||
V:2
 [F,,C,]2 [F,,C,] [F,,^C,]2 [F,,C,] | .C,3 .[C,A,]3 | [F,,D,]2 F,, F,,2 [F,,E,] | z2 E, D,2 C, | %4
 [G,,E,G,]2 [G,,E,G,] [G,,D,]2 [F,G,=B,] | [E,C]2 D, .[E,G,C]3 | [A,C]2 [E,G,C] [F,C]2 [D,G,] | %7
 C,2 B, A,2 G, | [^F,A,]2 [D,D] [G,D]2 [G,B,] | [D,A,]3 .[G,G]3 | [C,G,]2 [C,C] [F,C]2 [D,G,] | %11
 C,2 B, A,2 G, | [F,A,_E]2 [F,A,E] [_E,A,]2 [E,A,] | %13
[M:4/4] [D,B,]2[K:treble] [G,DF]2 [A,CF]2 [B,DF]2 |[M:6/8][K:bass] [C,A,]3 [C,G,]3 | [F,,F,]6 | %16
 [C,C]2 [D,C] [E,C]2 [C,C] | [F,C]3 A,2- [_E,A,] | [D,A,]2 [E,A,] [^F,A,]2 [F,C] | G3- [B,CG]3 | %20
 [A,CF]2[K:bass] [F,_E] [F,E]2 [F,E] |[M:4/4][K:treble] [B,DB]2 [DFG]2 [CFA]2 [B,DF]2 | %22
[M:6/8][K:bass] [C,A,]3 [C,B,C]3 | [F,A,C]6 |] %24
V:3
 x6 | z2[K:bass] D, z2 F, | x3[K:treble] x3 | .F,3 z3 | x6 | z2 =B, z2 B, | x6 | x6 | x6 | %9
 d2- [^Fd] z2 =F | x6 | .E3 z3 | x6 |[M:4/4] x8 |[M:6/8] x6 | x6 | x6 | z3 .A3 | x6 | x6 | x6 | %21
[M:4/4] x8 |[M:6/8] x6 | x6 |] %24
V:4
 x6 | F,,6 | x6 | F,,6 | x6 | G,3 z3 | x6 | x6 | x6 | x6 | x6 | x6 | x6 |[M:4/4] x2[K:treble] x6 | %14
[M:6/8][K:bass] x6 | x6 | x6 | z3 .F,3 | x6 | [G,B,]3 z3 | x2[K:bass] x4 |[M:4/4][K:treble] x8 | %22
[M:6/8][K:bass] x6 | x6 |] %24

